X: 1280
T: The Goldfinch
R:Reel
N:Collected by O'Reilly
B:O'Neill's 1280
Z:Transcribed by Trish O'Neil
M:C|
L:1/8
K:A
(Ac)|e2(ea)f2(af)|e2(ae) fece|e2(af) ecAc|{c}BABc BAFB|
A2(ea)f2(af)|e2(ae) fecf|e2(af) ecAc|BABcA2||
c2|ecBcA2(Ac)|B2(Bd) ceaf|ecBcA2(ce)|fbba geaf|
ecBeA2(Ac)|B2Bd ceaf|ecBcA2(ce)|fagea2|]


